images/logo.svg

<svg clip-rule="evenodd" fill-rule="evenodd" stroke-linejoin="round" stroke-miterlimit="1.41421" viewBox="0 0 1039 650" xmlns="http://www.w3.org/2000/svg"><g fill="#fff"><path d="m64.207 302.022c13.424-11.946 23.479-28.092 29.209-49.633l.876-64.188c5.269-127.616 204.357-127.391 210.447-4.314 1.925 22.649 1.955 45.405 1.351 68.196 2.524 17.491 15.302 35.633 31.465 51.303-13.159 6.808-35.19 10.725-64.314 12.332-42.389 52.95-105.057 57.476-147.164-1.08-25.787-1.918-52.401-3.469-61.87-12.616zm46.738-94.68c12.432 1.171 22.765-7.073 30.987-21.856 3.622 7.585 4.347 15.172.837 22.764 19.611 1.485 33.818-7.965 41.267-31.091 8.193 9.323 9.969 21.066 8.499 34.032 33.306 3.12 65.556 1.037 95.318-13.305 4.659 163.143-156.658 212.467-176.908 9.456z"/><g fill-rule="nonzero"><path d="m154.908 371.197c2.468.896 3.247.928 5.287 2.671.756.646 1.347 1.463 2.02 2.195l37.838 52.493 35.748-51.771 2-2.257c2.531-1.745 5.288-3.143 8.298-3.14 1.005 0 1.995.244 2.993.366l29.158 7.222c2.669 1.047 3.544 1.087 5.664 3.128 5.393 5.192 4.685 15.549-2.214 19.71-2.788 1.681-6.145 1.801-9.46 1.429l-20.774-5.146-40.907 59.243-2.299 2.512c-1.935 1.204-3.923 2.42-6.16 2.751-3.414.504-6.978-.486-9.619-2.591-.888-.708-1.566-1.644-2.349-2.466l-43.218-59.957c-22.048 5.624-44.156 11.019-66.143 16.876-18.296 4.957-30.237 25.834-30.574 44.554l-.004.304-.62 162.721 227 .191c2.842.377 3.701.207 6.248 1.68 6.48 3.749 8.275 13.974 2.572 19.667-2.303 2.3-5.533 3.221-8.841 3.653l-239.538-.202c-2.169-.288-4.381-.597-6.259-1.686-2.864-1.66-4.986-4.483-5.815-7.618-.278-1.054-.277-2.162-.415-3.243l.669-175.362c.269-22.206 10.688-44.023 28.1-58.106 6.329-5.119 13.768-8.841 21.677-10.877l74.014-18.881 2.958-.387c.988.108 1.977.216 2.965.324z"/><path d="m577.02 321.824 94.255 25.662 2.072.767c14.318 6.79 26.204 18.291 34.069 32.095 7.345 12.89 11.541 27.31 14.107 42.035.169.97.228 1.95.309 2.928l-1.088 202.018c-.294 2.156-.609 4.352-1.694 6.218-1.654 2.844-4.455 4.954-7.569 5.789-1.046.28-2.147.284-3.221.426l-378.848.462c-3.267-.425-6.554-1.373-8.832-3.639-2.304-2.292-3.237-5.512-3.683-8.813l-.772-200.793c.499-23.932 8.189-48.045 25.474-65.612 6.086-6.185 13.07-11.445 20.52-15.896l.328-.195c1.767-.868 1.77-.869 3.651-1.448l96.16-21.483c3.969-.407 8.063.251 10.974 2.808.735.645 1.308 1.453 1.961 2.18l43.726 61.899 44.639-62.604 2.05-2.239c.843-.56 1.624-1.226 2.528-1.679 2.443-1.224 3.222-1.057 5.88-1.322 1.001.146 2.002.291 3.004.436zm-47.971 96.263c-.776.824-1.448 1.761-2.329 2.471-3.579 2.889-8.725 3.525-12.842 1.732-2.81-1.225-3.183-2.07-5.217-4.248l-49.081-69.482-86.04 19.222c-13.168 8.178-23.721 20.294-28.493 34.695-2.576 7.773-3.687 15.969-3.909 24.173l-.012.541.722 188.018 353.964-.432 1.014-188.49c-3.835-21.755-11.842-44.201-33.031-54.882l-.201-.1-84.737-23.071c-16.603 23.285-33.206 46.569-49.808 69.853z"/><path d="m890.213 371.724 79.377 18.859 2.775 1.019c16.587 8.431 30.565 22.154 37.905 39.051 3.36 7.727 5.45 15.969 6.57 24.343l.15 2.029-1.69 178.393c-.3 2.153-.62 4.348-1.71 6.208-1.67 2.837-4.48 4.936-7.59 5.759-1.05.277-2.15.277-3.22.416l-238.619-.516c-7.441-.996-14.257-7.558-12.04-15.761.845-3.126 2.975-5.932 5.841-7.578 2.551-1.466 3.41-1.293 6.253-1.661l226.206.489 1.557-165.091c-2.504-17.943-12.925-34.172-29.525-43.06 0 0-69.778-16.618-69.778-16.618l-42.1 59.857c-2.053 2.202-2.429 3.061-5.275 4.288-4.156 1.792-9.404 1.078-12.948-1.873-.879-.732-1.54-1.691-2.31-2.537l-40.69-59.344-19.502 5.213-3.235.424c-2.842-.376-3.702-.206-6.249-1.679-5.606-3.241-7.926-11.265-4.565-17.078 1.63-2.818 4.511-4.545 7.594-5.819l28.04-7.495c2.035-.283 4.108-.559 6.092-.091 2.983.702 5.373 2.754 7.446 5.098l35.509 51.788 36.617-52.063 1.986-2.209c.817-.56 1.573-1.22 2.451-1.679 2.369-1.237 3.131-1.097 5.726-1.42.984.112 1.967.225 2.951.338z"/></g><path d="m425.648 209.899c-24.154 18.13-38.564-35.866-17.489-40.013-15.214-102.787 26.163-152.238 121.857-150.498l.969-18.244 20.89 17.368 17.467-17.514 11.792 30.786 31.276-7.05-7.774 23.539c26.889 33.208 33.206 74.966 27.035 121.916 19.625 13.103-1.823 56.723-17.191 40.919-39.036 122.214-153.874 123.315-188.832-1.209zm6.727-47.674c58.396 7.485 106.822-3.64 139.04-45.019 3.445 26.02 12.403 45.969 31.844 54.381-28.952 172.477-164.215 137.436-170.884-9.362z"/><path d="m728.311 353.354c.087 3.207 1.984 6.088 4.896 7.436 2.911 1.348 6.335.931 8.838-1.078 15.391-12.351 38.742-31.093 38.742-31.093 39.436 35.997 79.429 36.015 119.98.053 0 0 21.966 17.737 37.391 30.191 2.747 2.218 6.519 2.672 9.713 1.169s5.249-4.698 5.291-8.228c.51-42.525 1.7-141.703 1.7-141.703-3.572-179.511-235.099-152.011-228.107-4.271 2.378 50.267.408 98.434 1.556 147.524zm27.43-138.863 103.309-3.865c10.987-8.241 18.026-21.355 22.675-35.868 6.741 11.6 6.334 24.422 3.1 37.727l38.084.596c-26.144 172.741-150.637 153.194-167.168 1.41z"/></g></svg>

<?xml version="1.0" encoding="UTF-8" standalone="no"?>
<!DOCTYPE svg PUBLIC "-//W3C//DTD SVG 1.1//EN" "http://www.w3.org/Graphics/SVG/1.1/DTD/svg11.dtd">
<svg width="100%" height="100%" viewBox="0 0 1039 650" version="1.1" xmlns="http://www.w3.org/2000/svg" xmlns:xlink="http://www.w3.org/1999/xlink" xml:space="preserve" xmlns:serif="http://www.serif.com/" style="fill-rule:evenodd;clip-rule:evenodd;stroke-linejoin:round;stroke-miterlimit:1.41421;">
    <path d="M64.207,302.022C77.631,290.076 87.686,273.93 93.416,252.389L94.292,188.201C99.561,60.585 298.649,60.81 304.739,183.887C306.664,206.536 306.694,229.292 306.09,252.083C308.614,269.574 321.392,287.716 337.555,303.386C324.396,310.194 302.365,314.111 273.241,315.718C230.852,368.668 168.184,373.194 126.077,314.638C100.29,312.72 73.676,311.169 64.207,302.022ZM110.945,207.342C123.377,208.513 133.71,200.269 141.932,185.486C145.554,193.071 146.279,200.658 142.769,208.25C162.38,209.735 176.587,200.285 184.036,177.159C192.229,186.482 194.005,198.225 192.535,211.191C225.841,214.311 258.091,212.228 287.853,197.886C292.512,361.029 131.195,410.353 110.945,207.342Z" style="fill:white;"/>
    <path d="M154.908,371.197C157.376,372.093 158.155,372.125 160.195,373.868C160.951,374.514 161.542,375.331 162.215,376.063L200.053,428.556L235.801,376.785L237.801,374.528C240.332,372.783 243.089,371.385 246.099,371.388C247.104,371.388 248.094,371.632 249.092,371.754L278.25,378.976C280.919,380.023 281.794,380.063 283.914,382.104C289.307,387.296 288.599,397.653 281.7,401.814C278.912,403.495 275.555,403.615 272.24,403.243L251.466,398.097L210.559,457.34L208.26,459.852C206.325,461.056 204.337,462.272 202.1,462.603C198.686,463.107 195.122,462.117 192.481,460.012C191.593,459.304 190.915,458.368 190.132,457.546L146.914,397.589C124.866,403.213 102.758,408.608 80.771,414.465C62.475,419.422 50.534,440.299 50.197,459.019L50.193,459.323L49.573,622.044L276.573,622.235C279.415,622.612 280.274,622.442 282.821,623.915C289.301,627.664 291.096,637.889 285.393,643.582C283.09,645.882 279.86,646.803 276.552,647.235L37.014,647.033C34.845,646.745 32.633,646.436 30.755,645.347C27.891,643.687 25.769,640.864 24.94,637.729C24.662,636.675 24.663,635.567 24.525,634.486L25.194,459.124C25.463,436.918 35.882,415.101 53.294,401.018C59.623,395.899 67.062,392.177 74.971,390.141L148.985,371.26L151.943,370.873C152.931,370.981 153.92,371.089 154.908,371.197Z" style="fill:white;fill-rule:nonzero;"/>
    <path d="M577.02,321.824L671.275,347.486L673.347,348.253C687.665,355.043 699.551,366.544 707.416,380.348C714.761,393.238 718.957,407.658 721.523,422.383C721.692,423.353 721.751,424.333 721.832,425.311L720.744,627.329C720.45,629.485 720.135,631.681 719.05,633.547C717.396,636.391 714.595,638.501 711.481,639.336C710.435,639.616 709.334,639.62 708.26,639.762L329.412,640.224C326.145,639.799 322.858,638.851 320.58,636.585C318.276,634.293 317.343,631.073 316.897,627.772L316.125,426.979C316.624,403.047 324.314,378.934 341.599,361.367C347.685,355.182 354.669,349.922 362.119,345.471L362.447,345.276C364.214,344.408 364.217,344.407 366.098,343.828L462.258,322.345C466.227,321.938 470.321,322.596 473.232,325.153C473.967,325.798 474.54,326.606 475.193,327.333L518.919,389.232L563.558,326.628L565.608,324.389C566.451,323.829 567.232,323.163 568.136,322.71C570.579,321.486 571.358,321.653 574.016,321.388C575.017,321.534 576.018,321.679 577.02,321.824ZM529.049,418.087C528.273,418.911 527.601,419.848 526.72,420.558C523.141,423.447 517.995,424.083 513.878,422.29C511.068,421.065 510.695,420.22 508.661,418.042L459.58,348.56L373.54,367.782C360.372,375.96 349.819,388.076 345.047,402.477C342.471,410.25 341.36,418.446 341.138,426.65L341.126,427.191L341.848,615.209L695.812,614.777L696.826,426.287C692.991,404.532 684.984,382.086 663.795,371.405L663.594,371.305L578.857,348.234C562.254,371.519 545.651,394.803 529.049,418.087Z" style="fill:white;fill-rule:nonzero;"/>
    <path d="M890.213,371.724L969.59,390.583L972.365,391.602C988.952,400.033 1002.93,413.756 1010.27,430.653C1013.63,438.38 1015.72,446.622 1016.84,454.996L1016.99,457.025L1015.3,635.418C1015,637.571 1014.68,639.766 1013.59,641.626C1011.92,644.463 1009.11,646.562 1006,647.385C1004.95,647.662 1003.85,647.662 1002.78,647.801L764.161,647.285C756.72,646.289 749.904,639.727 752.121,631.524C752.966,628.398 755.096,625.592 757.962,623.946C760.513,622.48 761.372,622.653 764.215,622.285L990.421,622.774L991.978,457.683C989.474,439.74 979.053,423.511 962.453,414.623C962.453,414.623 892.675,398.005 892.675,398.005L850.575,457.862C848.522,460.064 848.146,460.923 845.3,462.15C841.144,463.942 835.896,463.228 832.352,460.277C831.473,459.545 830.812,458.586 830.042,457.74L789.352,398.396L769.85,403.609L766.615,404.033C763.773,403.657 762.913,403.827 760.366,402.354C754.76,399.113 752.44,391.089 755.801,385.276C757.431,382.458 760.312,380.731 763.395,379.457L791.435,371.962C793.47,371.679 795.543,371.403 797.527,371.871C800.51,372.573 802.9,374.625 804.973,376.969L840.482,428.757L877.099,376.694L879.085,374.485C879.902,373.925 880.658,373.265 881.536,372.806C883.905,371.569 884.667,371.709 887.262,371.386C888.246,371.498 889.229,371.611 890.213,371.724Z" style="fill:white;fill-rule:nonzero;"/>
    <path d="M425.648,209.899C401.494,228.029 387.084,174.033 408.159,169.886C392.945,67.099 434.322,17.648 530.016,19.388L530.985,1.144L551.875,18.512L569.342,0.998L581.134,31.784L612.41,24.734L604.636,48.273C631.525,81.481 637.842,123.239 631.671,170.189C651.296,183.292 629.848,226.912 614.48,211.108C575.444,333.322 460.606,334.423 425.648,209.899ZM432.375,162.225C490.771,169.71 539.197,158.585 571.415,117.206C574.86,143.226 583.818,163.175 603.259,171.587C574.307,344.064 439.044,309.023 432.375,162.225Z" style="fill:white;"/>
    <path d="M728.311,353.354C728.398,356.561 730.295,359.442 733.207,360.79C736.118,362.138 739.542,361.721 742.045,359.712C757.436,347.361 780.787,328.619 780.787,328.619C820.223,364.616 860.216,364.634 900.767,328.672C900.767,328.672 922.733,346.409 938.158,358.863C940.905,361.081 944.677,361.535 947.871,360.032C951.065,358.529 953.12,355.334 953.162,351.804C953.672,309.279 954.862,210.101 954.862,210.101C951.29,30.59 719.763,58.09 726.755,205.83C729.133,256.097 727.163,304.264 728.311,353.354ZM755.741,214.491L859.05,210.626C870.037,202.385 877.076,189.271 881.725,174.758C888.466,186.358 888.059,199.18 884.825,212.485L922.909,213.081C896.765,385.822 772.272,366.275 755.741,214.491Z" style="fill:white;"/>
</svg>
